X: 35927
T: Sang Nr 64
R: reel
M: 4/4
K: Gmajor
GE|D2 D2 D2 D2|G2 G2 z2 Bd|c2 c2 c2 dc|B4 z2 GE|D2 D2 D2 D2|
G2 G4 dB|A2 A2 AGAB|G4 z2 dc|B2 B2 B2 e2|d2 c2 c2 cB|A2 A2 A2 d2|
c2 B2 z2 GE|D2 D2 D2 D2|G2 G4 dB|A2 A2 AGAB|G4||

